X:1
T:Title
%%score { ( 1 3 5 ) | ( 2 4 ) }
L:1/8
M:4/4
K:Bb
V:1 treble nm="Grand Piano"
V:3 treble 
V:5 treble 
V:2 bass 
V:4 bass 
V:1
 z4 z2[Q:1/4=100] [DF]2 | z4 .B2 z2 | [DB]2 [EB]>[EB] [DB]3 [DB] | %3
 [Fd]2 [Fc]>[FB] [=EB]2 [EA][EB] | c6 z2 | [DB]2 [DB]>[Ec] [Fd]2 [Fc][FB] | %6
 [EG]2 [EG]>[FA] [GB]3 [EG] | [DF]2 [FB]>[Fd] c2 F>c | %8
[M:17/16] B/-B/-B/-B/-B/-B/-B/-B/-B/-B/-B/-B/-B/-B-<B |[M:1/8] F |[M:4/4] F2 F>G A2 A>B | %11
 [Ac]2 [_A=B]>[AB] [=Ac]3 [FA] | [FB]2 c>c d2 ed | c6 z2 | [DB]>[DB] [DB][DB] [Fd]2 [Fc][FB] | %15
 [EG][EG] [Gc]>[Gd] [Ge]3 [Ge] | A A2 A A2 B>c |[M:7/8] B-B-B- B- B3 |] %18
V:2
 z4 z2 [B,,F,]2 | [B,,F,]2 [B,,F,]>[B,,F,] [B,,F,]2 [B,,F,B,][B,,F,] | %2
 [B,,F,]2 [B,,G,]>[B,,G,] [B,,F,]3 [B,,F,] | [B,,B,]2 [C,A,]>[D,B,] [G,C]2 [C,C][C,B,] | %4
 [F,A,F]2 [G,B,]2 [A,C]2 [F,A,E]2 | [B,,B,]2 [B,,B,]>[B,,B,] [B,,B,]2 [C,A,][D,B,] | %6
 [E,B,]2 [E,B,]>[E,B,] [E,B,]3 [E,B,] | [F,B,]2 [D,B,]>[B,,B,] [F,A,E]2 [F,A,E]>[F,A,E] | %8
[M:17/16] z/ z/ z G,-<G,F,/-F,/-F,/-F,/-F,/-F,-<F, |[M:1/8] [F,A,] | %10
[M:4/4] [F,A,]2 [F,A,]>[F,B,F] [F,CF]2 [F,CF]>[F,DF] | [F,E]2 [F,D]>[F,D] [F,E]3 [E,C] | %12
 [D,B,]2[K:treble] [F,A,F]>[F,A,F] [B,F]2 [A,CF][B,F] | %13
 [A,CF]2[K:bass] [G,B,]2 .[F,A,]2 [D,B,][C,A,] | %14
 [B,,B,]>[B,,B,] [B,,B,][B,,B,] [B,,B,]2 [C,A,][D,B,] | [E,B,][E,B,] [E,B,]>[D,=B,] [C,C]3 [C,C] | %16
 [F,CE] [F,CE]2 [F,CE] [F,CE]2 [F,B,D]>[F,A,E] |[M:7/8] z2 G,2 F,3 |] %18
V:3
 x8 | [DB]2 [DB]>[Dc] D-[DF]D[DF] | x8 | x8 | z2 =E2 F2 F2 | x8 | x8 | x8 | %8
[M:17/16] [B,D]-<[B,D]E-<ED/-D/-D/-D/-D/-D-<D |[M:1/8] x |[M:4/4] x8 | x8 | x8 | z4 F2 F2 | x8 | %15
 x8 | x8 |[M:7/8] [B,D]2 E2 D3 |] %18
V:4
 x8 | x8 | x8 | x8 | x8 | x8 | x8 | x8 | %8
[M:17/16] B,,/-B,,/-B,,/-B,,/-B,,/-B,,/-B,,/-B,,/-B,,/-B,,/-B,,/-B,,/-B,,/-B,,-<B,, |[M:1/8] x | %10
[M:4/4] x8 | x8 | x2[K:treble] x6 | x2[K:bass] x6 | x8 | x8 | x8 |[M:7/8] B,,-B,,-B,,- B,,- B,,3 |] %18
V:5
 x8 | x8 | x8 | x8 | x8 | x8 | x8 | x8 |[M:17/16] x17/2 |[M:1/8] x |[M:4/4] x8 | x8 | x8 | %13
 z2 =E2 z E, z _E | x8 | x8 | x8 |[M:7/8] x7 |] %18

